public/images/icons/device_2.svg

<svg width="14" height="15" viewBox="0 0 14 15" fill="none" xmlns="http://www.w3.org/2000/svg">
<path fill-rule="evenodd" clip-rule="evenodd" d="M10.0065 0.0147797C9.25029 0.104039 8.38453 0.522215 7.84978 1.05653C7.20797 1.69786 6.8399 2.5069 6.8399 3.27643C6.8399 3.50805 6.84145 3.51303 6.92167 3.54196C7.11377 3.61126 7.6762 3.50732 8.07382 3.32902C9.01805 2.90562 9.81141 1.99227 10.0852 1.01348C10.1637 0.732933 10.2014 -0.00653693 10.1369 4.3637e-05C10.1142 0.00234965 10.0555 0.00898651 10.0065 0.0147797ZM9.30155 3.60957C8.99685 3.65805 8.54003 3.78376 7.92816 3.9875C7.65179 4.07955 7.31646 4.18211 7.18296 4.21549L6.94022 4.27612L6.64476 4.20196C6.48227 4.16118 6.12358 4.0517 5.84768 3.9587C4.891 3.63614 4.44735 3.56111 3.85543 3.62172C2.90147 3.71941 1.93902 4.19985 1.31653 4.88907C0.633447 5.64538 0.255035 6.57892 0.180406 7.69194C0.0642392 9.42448 0.694845 11.4449 1.85351 13.0525C2.51355 13.9682 3.12557 14.5646 3.67652 14.8287C4.21445 15.0866 4.67279 15.0589 5.68165 14.7075C6.42878 14.4473 6.92205 14.3674 7.45082 14.4213C7.83084 14.46 8.08119 14.521 8.59718 14.7006C9.35563 14.9645 9.81644 15.0337 10.2332 14.946C10.6778 14.8524 11.0323 14.644 11.4653 14.2214C12.2467 13.459 12.9609 12.3942 13.3623 11.3932C13.4381 11.2043 13.5001 11.0372 13.5001 11.0219C13.5001 11.0067 13.3803 10.9357 13.2339 10.8642C12.2393 10.3783 11.5603 9.51118 11.3717 8.48588C11.2988 8.08998 11.3261 7.4178 11.4303 7.04105C11.5228 6.70677 11.7449 6.2684 11.9532 6.00908C12.155 5.7579 12.6114 5.35443 12.8703 5.19841C12.9858 5.12881 13.0811 5.0643 13.0821 5.05507C13.083 5.04582 12.9974 4.94244 12.8917 4.82531C12.303 4.17277 11.5421 3.78123 10.5602 3.62563C10.1409 3.5592 9.65695 3.55302 9.30155 3.60957Z" fill="#181A1C"/>
</svg>

<svg xmlns="http://www.w3.org/2000/svg" width="14" height="15" fill="none"><path fill="#181A1C" fill-rule="evenodd" d="M10.007.015C9.25.104 8.385.522 7.85 1.057c-.642.64-1.01 1.45-1.01 2.22 0 .231.001.236.082.265.192.07.754-.035 1.152-.213.944-.423 1.737-1.337 2.011-2.316.079-.28.116-1.02.052-1.013l-.13.015ZM9.302 3.61c-.305.048-.762.174-1.374.377-.276.093-.612.195-.745.228l-.243.061-.295-.074c-.163-.04-.521-.15-.797-.243-.957-.323-1.4-.398-1.993-.337-.954.097-1.916.578-2.538 1.267C.633 5.645.255 6.58.18 7.692c-.116 1.732.515 3.753 1.674 5.36.66.916 1.272 1.513 1.823 1.777.537.258.996.23 2.005-.122.747-.26 1.24-.34 1.769-.286.38.039.63.1 1.146.28.759.263 1.22.333 1.636.245.445-.094.8-.302 1.232-.725a8.703 8.703 0 0 0 1.897-2.828c.076-.189.138-.356.138-.371 0-.015-.12-.086-.266-.158-.995-.486-1.674-1.353-1.862-2.378-.073-.396-.046-1.068.058-1.445.093-.334.315-.773.523-1.032.202-.251.658-.655.917-.81.116-.07.211-.135.212-.144.001-.01-.085-.113-.19-.23-.589-.652-1.35-1.044-2.332-1.2a4.34 4.34 0 0 0-1.258-.015Z" clip-rule="evenodd"/></svg>
